!!!OTL: "Kuhreigen" ES ISCH KEI SOLICHE STAMME
!!!ARE: Europa, Mitteleuropa, Emmenthal
!!!SCT: Z1312
!!!YEM: Copyright 1995, estate of Helmut Schaffrath.
**kern
*ICvox
*Ivox
*M4/4
*k[]
*a:
{8ee
8dd#
=1
4ee
8dd
8b
8dd
8ccn
8b
8a
=2
4b
4b
4r}
{8ee
8dd#
=3
4ee
8dd
8ccn
8dd
8ccn
4a
=4
2b
4r}
{8ccn
8a
=5
4g#
4e
8a
8g#
8a
8b
=6
4ccn
4a
4r}
{8ee
8dd#
=7
4ee
8dd
8ccn
8dd
8ccn
8b
8g#
=8
4a
2r}
==
!!!AGN: Handwerker -, Bauern - Lied
!!!ONB: ESAC (Essen Associative Code) Database: ZUCCAL
!!!AMT: simple quadruple
!!!AIN: vox
!!!EED: Helmut Schaffrath
!!!EEV: 1.0
*-
